X: 36215
T: Scully Casey's
R: slide
M: 12/8
K: Dmixolydian
d3 ABG F2G A2B|c3 A2B cBc ABc|d3 ABG F2G A2g|1 fed ed^c d2e =f2e:|2 fed ed^c d3 d2A||
d2e f2g a3 afd|c2d e2f g3 gfe|d2e f2g a3 afd|e^cA ABc d3 d2A|
d2e f2g a3 afd|c2d e2f g3 gfg|agf gfe fed ed^c|d^cA ABc d2e =f2e||

